svg/fluentui-system-icons/ic_fluent_comment_off_24_filled.svg

<svg width="24" height="24" viewBox="0 0 24 24" fill="none" xmlns="http://www.w3.org/2000/svg">
<path d="M3.28034 2.21968C2.98745 1.92678 2.51257 1.92677 2.21968 2.21966C1.92678 2.51255 1.92677 2.98743 2.21966 3.28032L2.92176 3.98244C2.35137 4.568 2 5.36797 2 6.25V14.75C2 16.5449 3.45508 18 5.25 18H6V20.75C6 21.7801 7.17595 22.368 8 21.75L13 18H16.939L20.7194 21.7805C21.0123 22.0734 21.4872 22.0734 21.7801 21.7805C22.073 21.4876 22.073 21.0127 21.7801 20.7198L3.28034 2.21968ZM22 14.75C22 15.8565 21.4471 16.8338 20.6024 17.4207L6.18197 3H18.75C20.5449 3 22 4.45507 22 6.25V14.75Z" fill="#212121"/>
</svg>

<svg xmlns="http://www.w3.org/2000/svg" width="24" height="24"><path d="M3.28 2.22a.75.75 0 1 0-1.06 1.06l.702.702A3.24 3.24 0 0 0 2 6.25v8.5A3.25 3.25 0 0 0 5.25 18H6v2.75c0 1.03 1.176 1.618 2 1L13 18h3.939l3.78 3.78a.75.75 0 0 0 1.061-1.06L3.28 2.22ZM22 14.75a3.246 3.246 0 0 1-1.398 2.67L6.182 3H18.75A3.25 3.25 0 0 1 22 6.25v8.5Z"/></svg>
